packages/ui-icons/svg/Solid/post-to-sis.svg

<svg viewBox="0 0 1920 1920" version="1.1" xmlns="http://www.w3.org/2000/svg">
    <path d="M922.293333,1188.96 C943.093333,1168.16 976.906667,1168.16 997.706667,1188.96 L997.706667,1188.96 L1264.37333,1455.62667 L1188.96,1531.04 L1013.38667,1355.46667 L1013.38667,1920.05333 L906.72,1920.05333 L906.72,1355.46667 L731.04,1531.04 L655.626667,1455.62667 Z M1600,-0.0426666667 C1688.21333,-0.0426666667 1760,71.744 1760,159.957333 L1760,159.957333 L1760,906.624 C1760,994.944 1688.21333,1066.624 1600,1066.624 L1600,1066.624 L320,1066.624 C231.786667,1066.624 160,994.944 160,906.624 L160,906.624 L160,159.957333 C160,71.744 231.786667,-0.0426666667 320,-0.0426666667 L320,-0.0426666667 Z M1531.41333,306.090667 C1460.58667,233.024 1344.42667,196.970667 1255.57333,220.544 C1192.74667,236.970667 1149.01333,280.277333 1132.58667,342.357333 C1097.92,473.557333 1232.42667,556.010667 1317.65333,584.277333 C1318.82667,584.704 1450.56,630.890667 1431.14667,695.957333 C1423.57333,721.664 1407.46667,736.810667 1380.48,743.317333 C1328.96,756.330667 1254.72,731.157333 1211.41333,686.784 L1211.41333,686.784 L1135.04,761.130667 C1191.46667,819.157333 1274.13333,853.397333 1350.72,853.397333 C1369.81333,853.397333 1388.37333,851.370667 1406.08,846.997333 C1469.76,831.210667 1514.98667,788.437333 1533.44,726.357333 C1572.69333,594.304 1437.12,511.104 1350.93333,482.944 C1349.54667,482.517333 1218.24,435.797333 1235.73333,369.664 C1242.34667,345.024 1257.17333,330.304 1282.56,323.690667 C1333.86667,310.464 1411.41333,335.530667 1455.04,380.437333 L1455.04,380.437333 Z M784.746667,306.090667 C713.92,233.024 597.653333,196.970667 508.906667,220.544 C446.08,236.970667 402.346667,280.277333 385.92,342.357333 C351.253333,473.557333 485.76,556.010667 570.986667,584.277333 C572.16,584.704 703.893333,630.890667 684.48,695.957333 C676.906667,721.664 660.8,736.810667 633.813333,743.317333 C582.506667,756.330667 508.053333,731.157333 464.746667,686.784 L464.746667,686.784 L388.373333,761.130667 C444.8,819.157333 527.466667,853.397333 604.053333,853.397333 C623.146667,853.397333 641.706667,851.370667 659.413333,846.997333 C723.093333,831.210667 768.32,788.437333 786.773333,726.357333 C826.026667,594.304 690.453333,511.104 604.266667,482.944 C602.88,482.517333 471.573333,435.797333 489.066667,369.664 C495.68,345.024 510.506667,330.304 535.893333,323.690667 C587.413333,310.464 664.64,335.530667 708.373333,380.437333 L708.373333,380.437333 Z M1013.33333,213.290667 L906.666667,213.290667 L906.666667,853.290667 L1013.33333,853.290667 L1013.33333,213.290667 Z" stroke="none" stroke-width="1" fill-rule="evenodd"/>
</svg>

<svg viewBox="0 0 1920 1920" xmlns="http://www.w3.org/2000/svg">
    <path d="M922.293 1188.96c20.8-20.8 54.614-20.8 75.414 0l266.666 266.667-75.413 75.413-175.573-175.573v564.586H906.72v-564.586L731.04 1531.04l-75.413-75.413ZM1600-.043c88.213 0 160 71.787 160 160v746.667c0 88.32-71.787 160-160 160H320c-88.213 0-160-71.68-160-160V159.957c0-88.213 71.787-160 160-160Zm-68.587 306.134c-70.826-73.067-186.986-109.12-275.84-85.547-62.826 16.427-106.56 59.733-122.986 121.813-34.667 131.2 99.84 213.654 185.066 241.92 1.174.427 132.907 46.614 113.494 111.68-7.574 25.707-23.68 40.854-50.667 47.36-51.52 13.014-125.76-12.16-169.067-56.533l-76.373 74.347c56.427 58.026 139.093 92.266 215.68 92.266 19.093 0 37.653-2.026 55.36-6.4 63.68-15.786 108.907-58.56 127.36-120.64 39.253-132.053-96.32-215.253-182.507-243.413-1.386-.427-132.693-47.147-115.2-113.28 6.614-24.64 21.44-39.36 46.827-45.973 51.307-13.227 128.853 11.84 172.48 56.746Zm-746.666 0c-70.827-73.067-187.094-109.12-275.84-85.547-62.827 16.427-106.56 59.733-122.987 121.813-34.667 131.2 99.84 213.654 185.067 241.92 1.173.427 132.906 46.614 113.493 111.68-7.573 25.707-23.68 40.854-50.667 47.36-51.306 13.014-125.76-12.16-169.066-56.533l-76.374 74.347c56.427 58.026 139.094 92.266 215.68 92.266 19.094 0 37.654-2.026 55.36-6.4 63.68-15.786 108.907-58.56 127.36-120.64 39.254-132.053-96.32-215.253-182.506-243.413-1.387-.427-132.694-47.147-115.2-113.28 6.613-24.64 21.44-39.36 46.826-45.973 51.52-13.227 128.747 11.84 172.48 56.746Zm228.586-92.8H906.667v640h106.666v-640Z" fill-rule="evenodd"/>
</svg>
